static/assets/images/tokens/solvbtc.svg

<svg width="256" height="256" viewBox="0 0 256 256" fill="none" xmlns="http://www.w3.org/2000/svg">
<path d="M252.163 158.962C235.068 227.534 165.608 269.269 97.0224 252.167C28.4653 235.072 -13.2691 165.618 3.83287 97.0534C20.9206 28.4743 90.3807 -13.2606 158.945 3.8273C227.53 20.9294 269.265 90.3904 252.17 158.962H252.163Z" fill="url(#paint0_linear_9890_1705)"/>
<path fill-rule="evenodd" clip-rule="evenodd" d="M154.299 53.9526C154.58 52.8558 155.076 51.8256 155.759 50.9217C156.441 50.0178 157.297 49.2581 158.276 48.6866C159.254 48.1152 160.337 47.7434 161.461 47.5927C162.584 47.4421 163.727 47.5155 164.822 47.8089C165.917 48.1023 166.943 48.6097 167.84 49.3018C168.737 49.9939 169.488 50.8568 170.049 51.8407C170.61 52.8246 170.97 53.9099 171.108 55.0336C171.245 56.1573 171.159 57.2972 170.852 58.3872L167.226 71.9192L169.481 72.5201C177.264 74.6057 183.9 79.6924 187.928 86.6618C191.956 93.6311 193.048 101.913 190.963 109.686L190.765 110.431C189.155 116.428 185.696 121.767 180.878 125.692C176.059 129.617 170.127 131.929 163.92 132.3V132.315H163.646C162.739 132.391 162.572 133.684 163.47 133.966C171.413 137.12 177.848 143.187 181.459 150.923C185.07 158.66 185.583 167.482 182.894 175.584C180.205 183.686 174.517 190.456 166.993 194.508C159.47 198.56 150.68 199.588 142.423 197.381L137.166 195.974L133.533 209.498C133.259 210.602 132.768 211.641 132.087 212.553C131.407 213.466 130.551 214.234 129.57 214.812C128.589 215.39 127.503 215.767 126.374 215.921C125.245 216.075 124.097 216.003 122.997 215.709C121.896 215.414 120.866 214.904 119.965 214.207C119.065 213.511 118.312 212.642 117.752 211.651C117.192 210.661 116.835 209.569 116.702 208.439C116.57 207.309 116.664 206.164 116.98 205.071L120.606 191.547L105.553 187.515L101.919 201.04C101.646 202.144 101.154 203.183 100.474 204.095C99.7935 205.007 98.9378 205.775 97.9568 206.353C96.9757 206.932 95.8891 207.309 94.7604 207.463C93.6317 207.617 92.4836 207.544 91.3831 207.25C90.2827 206.956 89.2521 206.446 88.3516 205.749C87.4511 205.052 86.6987 204.183 86.1384 203.193C85.5781 202.202 85.2213 201.11 85.0886 199.98C84.956 198.851 85.0503 197.706 85.366 196.613L88.992 183.088L65.6513 176.843C63.3242 176.142 61.3619 174.564 60.1799 172.443C58.9978 170.322 58.689 167.825 59.3188 165.481C59.9485 163.137 61.4675 161.129 63.5538 159.884C65.6401 158.638 68.1301 158.253 70.4962 158.808L78.9991 161L102.171 73.836L94.652 71.8279C92.2569 71.1864 90.2151 69.6211 88.9758 67.4763C87.7365 65.3316 87.4012 62.7831 88.0436 60.3915C88.6861 57.9999 90.2537 55.9611 92.4016 54.7236C94.5495 53.4861 97.1018 53.1513 99.4969 53.7928L119.052 59.0261L122.685 45.5017C122.959 44.3975 123.45 43.3589 124.131 42.4465C124.811 41.5341 125.667 40.7664 126.648 40.1881C127.629 39.6099 128.715 39.2327 129.844 39.0788C130.973 38.9248 132.121 38.9971 133.221 39.2913C134.322 39.5856 135.352 40.096 136.253 40.7927C137.153 41.4894 137.906 42.3584 138.466 43.3488C139.026 44.3393 139.383 45.4313 139.516 46.5611C139.648 47.6909 139.554 48.8357 139.238 49.9287L135.612 63.4607L150.665 67.4922L154.299 53.9526ZM113.36 107.446C113.171 108.88 113.267 110.336 113.643 111.732C114.4 114.549 116.254 116.95 118.784 118.408C121.314 119.866 124.32 120.261 127.142 119.506L157.978 111.26C160.801 110.504 163.206 108.658 164.666 106.131C166.126 103.603 166.521 100.6 165.763 97.7813C165.006 94.9631 163.158 92.5607 160.626 91.1029C158.095 89.645 155.087 89.251 152.265 90.0075L121.436 98.2529C120.037 98.6263 118.726 99.2712 117.578 100.151C116.429 101.031 115.465 102.128 114.742 103.379C114.018 104.631 113.548 106.013 113.36 107.446ZM100.649 153.163C99.1892 155.69 98.7939 158.691 99.5502 161.509C99.9242 162.904 100.57 164.213 101.45 165.359C102.331 166.505 103.429 167.467 104.681 168.19C105.934 168.913 107.317 169.382 108.752 169.57C110.186 169.759 111.644 169.664 113.041 169.29L143.878 161.037C146.7 160.281 149.106 158.436 150.566 155.908C152.026 153.38 152.421 150.377 151.663 147.558C150.905 144.74 149.058 142.338 146.526 140.88C143.995 139.422 140.987 139.028 138.164 139.785L107.336 148.038C104.514 148.793 102.109 150.637 100.649 153.163Z" fill="white"/>
<defs>
<linearGradient id="paint0_linear_9890_1705" x1="89.499" y1="9.5" x2="147" y2="246" gradientUnits="userSpaceOnUse">
<stop stop-color="#FFE07C"/>
<stop offset="1" stop-color="#DB8931"/>
</linearGradient>
</defs>
</svg>

<svg xmlns="http://www.w3.org/2000/svg" fill="none" viewBox="0 0 256 256"><path fill="url(#paint0_linear_9890_1705)" d="M252.166 158.962c-17.095 68.572-86.556 110.307-155.142 93.205C28.466 235.072-13.27 165.618 3.833 97.053 20.92 28.474 90.382-13.26 158.947 3.827c68.586 17.102 110.321 86.563 93.226 155.135z"/><path fill="#fff" fill-rule="evenodd" d="M154.3 53.953a8.6 8.6 0 0 1 1.46-3.031 8.58 8.58 0 0 1 5.702-3.33 8.6 8.6 0 0 1 6.38 1.71 8.57 8.57 0 0 1 3.267 5.732 8.6 8.6 0 0 1-.255 3.353l-3.626 13.532 2.255.601a30.4 30.4 0 0 1 18.447 14.142 30.3 30.3 0 0 1 3.035 23.024l-.198.745a29.57 29.57 0 0 1-9.888 15.261 29.65 29.65 0 0 1-16.957 6.608v.015h-.275c-.906.076-1.074 1.369-.175 1.651a33.5 33.5 0 0 1 17.989 16.957 33.42 33.42 0 0 1 1.435 24.661 33.47 33.47 0 0 1-15.901 18.924 33.55 33.55 0 0 1-24.571 2.873l-5.256-1.407-3.634 13.524a8.56 8.56 0 0 1-7.159 6.423 8.6 8.6 0 0 1-6.409-1.714 8.55 8.55 0 0 1-2.985-9.136l3.626-13.524-15.053-4.032-3.634 13.525a8.54 8.54 0 0 1-3.962 5.313 8.57 8.57 0 0 1-6.574.897 8.56 8.56 0 0 1-6.294-7.27 8.5 8.5 0 0 1 .277-3.367l3.626-13.525-23.34-6.245a9.35 9.35 0 0 1-5.473-4.4 9.33 9.33 0 0 1 3.374-12.559 9.37 9.37 0 0 1 6.943-1.076L79 161l23.172-87.164-7.519-2.008a9.35 9.35 0 0 1-5.676-4.352 9.32 9.32 0 0 1-.932-7.084 9.34 9.34 0 0 1 4.358-5.668 9.36 9.36 0 0 1 7.095-.931l19.555 5.233 3.634-13.524a8.55 8.55 0 0 1 3.962-5.314 8.58 8.58 0 0 1 11.819 3.16 8.54 8.54 0 0 1 .772 6.58l-3.626 13.533 15.053 4.031zm-40.939 53.493a10.99 10.99 0 0 0 5.424 10.962 11.03 11.03 0 0 0 8.358 1.098l30.837-8.246a11.02 11.02 0 0 0 6.688-5.129 11 11 0 0 0 1.097-8.35 11 11 0 0 0-5.137-6.678 11.03 11.03 0 0 0-8.362-1.096l-30.829 8.246a11.03 11.03 0 0 0-6.694 5.126 11 11 0 0 0-1.382 4.067m-12.711 45.717a10.99 10.99 0 0 0 .801 12.196 11.03 11.03 0 0 0 11.591 3.931l30.837-8.253a11 11 0 0 0 6.689-5.129 10.993 10.993 0 0 0-4.04-15.028 11.03 11.03 0 0 0-8.362-1.095l-30.829 8.253a11 11 0 0 0-6.687 5.125" clip-rule="evenodd"/><defs><linearGradient id="paint0_linear_9890_1705" x1="89.5" x2="147" y1="9.5" y2="246" gradientUnits="userSpaceOnUse"><stop stop-color="#FFE07C"/><stop offset="1" stop-color="#DB8931"/></linearGradient></defs></svg>
